actions/22/gnumeric-cells-merge.svg

<svg id="svg6" version="1.1" viewBox="0 0 22 22" xmlns="http://www.w3.org/2000/svg">
    <defs id="defs3051">
        <style id="current-color-scheme" type="text/css">.ColorScheme-Text {
        color:#eff0f1;
      }</style>
    </defs>
    <path id="path4" class="ColorScheme-Text" d="m3 3v16h16v-16zm1 1h4v2h-4zm5 0h4v2h-4v-1zm5 0h4v2h-4v-1zm-10 3h4v2h-4zm5 0h9v8.099609h-9v-3.099609zm-5 3h4v2h-4zm0 3h4v2.099609h-4zm0 3.099609h4v1.900391h-4zm5 0h4v1.900391h-4v-0.900391zm5 0h4v1.900391h-4v-0.900391z" fill="currentColor"/>
</svg>

<svg id="svg6" version="1.1" viewBox="0 0 22 22" xmlns="http://www.w3.org/2000/svg">
    <defs id="defs3051">
<style type="text/css" id="current-color-scheme">.ColorScheme-Text {color:#fcfcfc;}</style>
    </defs>
    <path id="path4" class="ColorScheme-Text" d="m 3,6 v 10 c 0,0 0,3 3,3 3,0 7,0 10,0 3,0 3,-3 3,-3 V 6 C 19,6 19,3 16,3 13,3 9,3 6,3 3,3 3,6 3,6 Z M 6,4 C 8,4 8,4 8,4 V 6 H 4 C 4,6 4,4 6,4 Z m 3,0 h 4 V 6 H 9 V 5 Z m 5,0 c 0,0 0,0 2,0 2,0 2,2 2,2 H 14 V 5 Z M 4,7 H 8 V 9 H 4 Z m 5,0 h 9 v 8.099609 H 9 V 12 Z m -5,3 h 4 v 2 H 4 Z m 0,3 h 4 v 2.099609 H 4 Z m 0,3.099609 H 8 V 18 c 0,0 0,0 -2,0 -2,0 -2,-1.900391 -2,-1.900391 z m 5,0 h 4 V 18 H 9 v -0.900391 z m 5,0 h 4 c 0,0 0,1.900391 -2,1.900391 -2,0 -2,0 -2,0 v -0.900391 z" fill="currentColor"/>
</svg>
